X:1
T:Ariettes Oubliées
T:Paysages belges. Chevaux de bois
T:4. Paysages belges. Chevaux de bois
T:Claude Debussy
T:Paul Verlaine
T:Ariettes Oubliées
T:Creative Commons copyright waiver (CC0 1.0 Universal) 
T:Creative Commons copyright waiver (CC0 1.0 Universal) 
T:Creative Commons copyright waiver (CC0 1.0 Universal) 
T:Creative Commons copyright waiver (CC0 1.0 Universal) 
T:Creative Commons copyright waiver (CC0 1.0 Universal) 
T:Creative Commons copyright waiver (CC0 1.0 Universal) 
T:Creative Commons copyright waiver (CC0 1.0 Universal) 
C:Claude Debussy
Z:Paul Verlaine
Z:Creative Commons copyright waiver (CC0 1.0 Universal)
L:1/8
M:2/4
K:E
V:1 treble nm="Chant\nVoice"
V:1
 z4 | z4 | z4 | z4 | z4 | z4 | z4 | z2 z3/2 B/ | e>e B2 | c/c/c/c/ GG | A^A BE | =F^F/F/ =G B | %12
w: |||||||Tour-|nez, tour- nez,|bons che- veaux de bois, Tour-|nez, cent tours, tour-|nez mil- le tours, Tour-|
[K:E] e>e B2 | c/c/c/c/ GG | A^A BE | =F^F/F/ =G2 ||[K:C] z3/2 C/ D>D | CC/ z/ D/D/D/D/ | %18
w: \- nez sou- vent,|et tour- nez tou- jours Tour-|nez, tour- nez au|son des haut- bois|L'en- fant tout|rou- ge et la mè- re|
 C/C/4 z/4 C DD | EE (3GGG | AA/ z/ BB/B/ | AA BB/B/ | A/A/4 z/4 A BB | dA dc/d/ | d4- | %25
w: blan- che, Le gars en|noir et la fille en|ro- se, L'une a la|chose et l'au- tre~a la|po- se, Cha- cun se|paie un sou de di-|man-|
 d z z3/2 _B/ ||[K:Eb] e>e B z | c/c/c/c/ GG | A=A BE | (3=E=EF ^F B | ee B2 | c/c/c/c/ GG | %32
w: che. Tour-|nez, tour- nez,|che- vaux de leur coeur, Tan-|dis qu'au- tour de|tous vos tour- nois Cli-|gno- te l'oeil|du fi- lou sour- nois Tour-|
 A=A BE/E/ ||[M:1/4] =EF ||[K:B][M:2/4] F4- | F2 z2 | z4 | z4 | z/ F/F/F/ =G2 | ^G/G/G/G/ =AA/ z/ | %40
w: nez au son du pis-|ton vain-|\- queur!|_|||C'est é- ton- nant|com- me ça vous soû- le|
 ^AA =AA | G/G/G/G/ =GG/ z/ | z/ B/B/B/ =FF | BB/B/ =FF/ z/ | z/ c/c/c/ =GG ||[M:1/4] (3ccc || %46
w: D'al- ler ain- si|dans ce cir- que bê- te:|Rien dans le ven- tre~et|mal dans la tê- te,|Du mal en mas- se~et|du bien en|
[K:G][M:2/4] d4- | d2 z2 | z4 | z2 z3/2 d/ | g>g d z | e/e/e/e/ BB | c^c dG | ^GA/A/ _Bd | %54
w: fou-|le;||Tour-|nez da- das,|sans qu'il soit be- soin D'u-|ser ja- mais de|nuls é- pe- rons Pour|
 =gg d z | e/e/e/e/ BB | c^c dG/G/ ||[M:1/4] ^GA ||[K:C][M:2/4] _B4- | B2 z2 | F2 FF | _BB (3dcd | %62
w: com- man- der|à vos ga- lops ronds Tour-|\- nez, tour- nez, sans es-|por de|foin|_|Et dé- pê-|chez, che- vaux de leur|
 _B4 | F2 z D | G2 G2 | _BG (3ABd | d4- | d2 d2 | ^c2 dd | ^dd (3eee | ^c2 ^A2- | A2 (3^G^A^F | %72
w: â-|me, Dé-|jà voi-|\- ci que son- ne~à la|sou-|* pe|La nuit qui|tom- be~et chas- se la|trou- pe|_ De gais bu-|
 ^CC (3DDD | ^D2 E2 | B4- | B2 z2 | z4 | z2 z B ||[K:E] e2 z e | B2 z2 | ee ee | B2 (3BBB | c3 c | %83
w: veurs, que leur soif af-|fa- *|me.|_||Tour-|nez, tour-|nez!|Le ciel en ve-|lours D'as- tres en|or se|
 =d2 dd | ^d4- | d2 z2 | z ^A FG | ^Ac df | (3^e2 d2 c2 | ^A4 | z3/2 =A/ =G>G | AA (3=GGG | A4- | %93
w: vêt len- te-|ment,|_|L'E- gli- se|tinte _ un _|glas tris- te-|ment.|Tour- nez au|son jo- yeux des tam-|bours,|
 A2 =F2 | E4- | E2 z2 | z4 | z4 | z4 | z4 | z4 | z4 |] %102
w: _ tour-|nez.|_|||||||

